app/dist/common/images/american-woodmark.svg

<svg height="18" width="18" xmlns="http://www.w3.org/2000/svg"><path d="m0 0h18v18h-18z" fill="#b02128"/><path d="m3 12h4.487l.064-.074 1.487-1.727 1.413 1.723.065.078h4.484l-6-7zm5.4-5.7.6-.6.6.7.002-.434 4.279 5.034h-2.881l-1.4-1.536v-.98l-.6-.504-.6.548v-.782l.6-.506.6.561v-.757l-.6-.506-.6.551zm.638 2.438.436.57-.474.531-1 1.161h-1z" fill="#fff"/></svg>

<!-- by TradingView --><svg width="18" height="18" xmlns="http://www.w3.org/2000/svg"><path fill="#B02128" d="M0 0h18v18H0z"/><path d="M3 12h4.487l.064-.074 1.487-1.727 1.413 1.723.065.078H15L9 5l-6 7zm5.4-5.7l.6-.6.6.7.002-.434L13.881 11H11L9.6 9.464v-.98L9 7.98l-.6.548v-.782L9 7.24l.6.561v-.757L9 6.538l-.6.551V6.3zm.638 2.438l.436.57L9 9.839 8 11H7l2.038-2.262z" fill="#fff"/></svg>
